images/WXRP.svg

<svg height="250" viewBox="0 0 250 250" width="250" xmlns="http://www.w3.org/2000/svg"><path d="m242.597656 124.863281c0 64.945313-52.648437 117.597657-117.597656 117.597657s-117.597656-52.652344-117.597656-117.597657c0-64.949219 52.648437-117.597656 117.597656-117.597656s117.597656 52.648437 117.597656 117.597656zm0 0" fill="#0175a9"/><path d="m125 250c-69.035156 0-125-55.964844-125-125s55.964844-125 125-125 125 55.964844 125 125c-.082031 69-56 124.917969-125 125zm0-242.597656c-64.953125 0-117.609375 52.65625-117.609375 117.609375.003906 64.957031 52.660156 117.609375 117.617187 117.605469 64.953126-.003907 117.605469-52.664063 117.601563-117.617188-.078125-64.921875-52.6875-117.527344-117.609375-117.597656zm0 0"/><path d="m58.296875 128.402344-1.335937 6.625-1.308594-6.890625-5.128906-24.722657h-9.523438l-4.878906 24.867188-1.246094 6.746094-1.238281-6.890625-5.703125-24.722657h-9.582032l12.246094 43.179688h8.375l5.21875-25.25 1.523438-8.355469 1.523437 8.355469 5.210938 25.25h8.640625l12.148437-43.179688h-9.179687zm0 0"/><path d="m225.003906 125c.019532-23.652344-8.367187-46.542969-23.667968-64.578125l12.628906-12.640625-12-12.003906-12.640625 12.652344c-37.433594-31.601563-92.257813-31.40625-129.464844.460937l-12.679687-12.738281-12.050782 12.011718 12.78125 12.777344c-6.398437 7.675782-11.613281 16.261719-15.472656 25.476563h17.28125c17.832031-34.761719 57.164062-52.773438 95.132812-43.566407 37.96875 9.203126 64.683594 43.230469 64.613282 82.300782-.070313 39.070312-26.90625 73.003906-64.910156 82.074218-38 9.070313-77.269532-9.085937-94.976563-43.910156h-17.210937c3.9375 9.476563 9.308593 18.296875 15.925781 26.144532l-12.691407 12.691406 12.003907 12 12.679687-12.652344c37.058594 31.398438 91.328125 31.59375 128.617188.464844l12.6875 12.6875 12.003906-12-12.613281-12.652344c15.523437-18.097656 24.046875-41.15625 24.023437-65zm0 0"/><path d="m90.695312 84.691406 4.855469 4.816406c5.703125 5.652344 11.40625 11.300782 17.113281 16.945313 2.457032 2.519531 5.632813 4.214844 9.09375 4.855469 5.136719 1.042968 10.46875-.371094 14.417969-3.824219 1.367188-1.148437 2.585938-2.46875 3.851563-3.714844l19.148437-18.933593.128907-.144532h14.027343l-13.832031 13.691406-15.273438 15.117188c-9.449218 9.378906-24.289062 10.578125-35.121093 2.832031-1.503907-1.117187-2.914063-2.351562-4.214844-3.699219l-28.054687-27.765624-.167969-.175782zm0 0"/><path d="m173.5 165.035156h-13.761719c-.160156.007813-.316406-.058594-.425781-.175781l-22.09375-21.871094c-6.722656-6.691406-17.582031-6.71875-24.339844-.058593-7.417968 7.273437-14.742187 14.605468-22.171875 21.910156-.117187.128906-.289062.203125-.464843.195312h-13.761719l.199219-.214844 29.125-28.820312c10.652343-10.523438 27.800781-10.488281 38.410156.078125l29.039062 28.730469zm0 0"/></svg>

<svg xmlns="http://www.w3.org/2000/svg" xmlns:xlink="http://www.w3.org/1999/xlink" width="250px" height="250px" viewBox="0 0 250 250" version="1.1">
<g id="surface1">
<path style=" stroke:none;fill-rule:nonzero;fill:rgb(0.392157%,45.882353%,66.274512%);fill-opacity:1;" d="M 242.597656 124.863281 C 242.597656 189.808594 189.949219 242.460938 125 242.460938 C 60.050781 242.460938 7.402344 189.808594 7.402344 124.863281 C 7.402344 59.914062 60.050781 7.265625 125 7.265625 C 189.949219 7.265625 242.597656 59.914062 242.597656 124.863281 Z M 242.597656 124.863281 "/>
<path style=" stroke:none;fill-rule:nonzero;fill:rgb(0%,0%,0%);fill-opacity:1;" d="M 125 250 C 55.964844 250 0 194.035156 0 125 C 0 55.964844 55.964844 0 125 0 C 194.035156 0 250 55.964844 250 125 C 249.917969 194 194 249.917969 125 250 Z M 125 7.402344 C 60.046875 7.402344 7.390625 60.058594 7.390625 125.011719 C 7.394531 189.96875 60.050781 242.621094 125.007812 242.617188 C 189.960938 242.613281 242.613281 189.953125 242.609375 125 C 242.53125 60.078125 189.921875 7.472656 125 7.402344 Z M 125 7.402344 "/>
<path style=" stroke:none;fill-rule:nonzero;fill:rgb(0%,0%,0%);fill-opacity:1;" d="M 58.296875 128.402344 L 56.960938 135.027344 L 55.652344 128.136719 L 50.523438 103.414062 L 41 103.414062 L 36.121094 128.28125 L 34.875 135.027344 L 33.636719 128.136719 L 27.933594 103.414062 L 18.351562 103.414062 L 30.597656 146.59375 L 38.972656 146.59375 L 44.191406 121.34375 L 45.714844 112.988281 L 47.238281 121.34375 L 52.449219 146.59375 L 61.089844 146.59375 L 73.238281 103.414062 L 64.058594 103.414062 Z M 58.296875 128.402344 "/>
<path style=" stroke:none;fill-rule:nonzero;fill:rgb(0%,0%,0%);fill-opacity:1;" d="M 225.003906 125 C 225.023438 101.347656 216.636719 78.457031 201.335938 60.421875 L 213.964844 47.78125 L 201.964844 35.777344 L 189.324219 48.429688 C 151.890625 16.828125 97.066406 17.023438 59.859375 48.890625 L 47.179688 36.152344 L 35.128906 48.164062 L 47.910156 60.941406 C 41.511719 68.617188 36.296875 77.203125 32.4375 86.417969 L 49.71875 86.417969 C 67.550781 51.65625 106.882812 33.644531 144.851562 42.851562 C 182.820312 52.054688 209.535156 86.082031 209.464844 125.152344 C 209.394531 164.222656 182.558594 198.15625 144.554688 207.226562 C 106.554688 216.296875 67.285156 198.140625 49.578125 163.316406 L 32.367188 163.316406 C 36.304688 172.792969 41.675781 181.613281 48.292969 189.460938 L 35.601562 202.152344 L 47.605469 214.152344 L 60.285156 201.5 C 97.34375 232.898438 151.613281 233.09375 188.902344 201.964844 L 201.589844 214.652344 L 213.59375 202.652344 L 200.980469 190 C 216.503906 171.902344 225.027344 148.84375 225.003906 125 Z M 225.003906 125 "/>
<path style=" stroke:none;fill-rule:nonzero;fill:rgb(0%,0%,0%);fill-opacity:1;" d="M 90.695312 84.691406 L 95.550781 89.507812 C 101.253906 95.160156 106.957031 100.808594 112.664062 106.453125 C 115.121094 108.972656 118.296875 110.667969 121.757812 111.308594 C 126.894531 112.351562 132.226562 110.9375 136.175781 107.484375 C 137.542969 106.335938 138.761719 105.015625 140.027344 103.769531 L 159.175781 84.835938 L 159.304688 84.691406 L 173.332031 84.691406 L 159.5 98.382812 L 144.226562 113.5 C 134.777344 122.878906 119.9375 124.078125 109.105469 116.332031 C 107.601562 115.214844 106.191406 113.980469 104.890625 112.632812 L 76.835938 84.867188 L 76.667969 84.691406 Z M 90.695312 84.691406 "/>
<path style=" stroke:none;fill-rule:nonzero;fill:rgb(0%,0%,0%);fill-opacity:1;" d="M 173.5 165.035156 L 159.738281 165.035156 C 159.578125 165.042969 159.421875 164.976562 159.3125 164.859375 L 137.21875 142.988281 C 130.496094 136.296875 119.636719 136.269531 112.878906 142.929688 C 105.460938 150.203125 98.136719 157.535156 90.707031 164.839844 C 90.589844 164.96875 90.417969 165.042969 90.242188 165.035156 L 76.480469 165.035156 L 76.679688 164.820312 L 105.804688 136 C 116.457031 125.476562 133.605469 125.511719 144.214844 136.078125 L 173.253906 164.808594 Z M 173.5 165.035156 "/>
</g>
</svg>
